!!!!SEGMENT: Ric1001c-Missa_O_genitrix-Credo
!!!id: Ric1001c
!!!AGN: Mass; Credo
!!!voices: 4
!!!OPR: Missa O genitrix
!!!COM: Jean Richafort
!!!OTL: Credo
**kern	**kern	**kern	**kern
*part4	*part3	*part2	*part1
*staff4	*staff3	*staff2	*staff1
*I"Bassus	*I"Tenor	*I"Altus	*I"Superius
*I'B.	*I'T.	*I'A.	*I'S.
*clefF4	*clefGv2	*clefG2	*clefG2
*k[b-]	*k[b-]	*k[b-]	*k[b-]
*F:	*F:	*F:	*F:
*M2/1	*M2/1	*M2/1	*M2/1
*met(C|)	*met(C|)	*met(C|)	*met(C|)
=1	=1	=1	=1
!!section: Patrem omnipotentem
!!!OMD: Patrem omnipotentem
0r	0r	0r	0g
=2	=2	=2	=2
0r	0G	0r	1g
.	.	.	[1g
=3	=3	=3	=3
0r	1G	1r	2g]
.	.	.	2a
.	[1G	[1g	2b-y
.	.	.	2cc
=4	=4	=4	=4
0r	2G]	1g]	0dd
.	2A	.	.
.	2B-y	1g	.
.	2c	.	.
=5	=5	=5	=5
1r	0d	1f	1dd
[1G	.	2.b-y	2dd
.	.	.	2cc
.	.	4a	.
=6	=6	=6	=6
1G]	2r	2g	1.b-y
.	2d	2f	.
1G	2B-y	2.e	.
.	2B-y	.	4a
.	.	4d	4g
=7	=7	=7	=7
1F	1c	0f	1a
2.B-y	2.d	.	2r
.	.	.	[2b-y
4A	4c	.	.
=8	=8	=8	=8
2G	2B-y	2e	4b-]
.	.	.	4a
2F	1A	2.d	2f
1E	.	.	1g
.	.	8c#iL	.
.	.	8BnXiJ	.
.	2G	2c#i	.
=9	=9	=9	=9
1D	2A	1d	2f
.	2d	.	4e
.	.	.	4d
1r	2d	1A	1e
.	2c#i	.	.
=10	=10	=10	=10
2r	2.d	1r	1d
2G	.	.	.
.	4d	.	.
2G	2e	2r	1r
2F	2f	2d	.
=11	=11	=11	=11
2G	1e	2d	0r
2A	.	2c	.
2.B-y	1r	2.d	.
4G	.	4e	.
=12	=12	=12	=12
2A	0r	2f	0r
2.B-y	.	1g	.
4A	.	.	.
4G	.	2f	.
4F	.	.	.
=13	=13	=13	=13
1G	2r	1b-y	1r
.	2d	.	.
1F	2d	1a	2r
.	2c	.	2a
=14	=14	=14	=14
0r	2d	0r	2a
.	2e	.	2g
.	4f	.	2a
.	4e	.	.
.	4d	.	2b-y
.	4c	.	.
=15	=15	=15	=15
0r	1e	0r	4cc
.	.	.	4b-y
.	.	.	4a
.	.	.	4g
.	2d	.	2b-y
.	[2c	.	[2a
=16	=16	=16	=16
0r	4c]	0r	4a]
.	4B-y	.	4g
.	4A	.	1g
.	4G	.	.
.	1A	.	.
.	.	.	2f#i
=17	=17	=17	=17
0r	0G	1r	1g
.	.	1g	1r
=18	=18	=18	=18
0r	0r	2g	1dd
.	.	1g	.
.	.	.	2dd
.	.	2f	[2dd
=19	=19	=19	=19
0r	0r	2g	2dd]
.	.	2a	2cc
.	.	[1b-y	2dd
.	.	.	2ee
=20	=20	=20	=20
0r	1d	2b-]	1.ff
.	.	4a	.
.	.	4g	.
.	2d	[1a	.
.	2d	.	4ee
.	.	.	4dd
=21	=21	=21	=21
0r	2c	2a]	2ee
.	2d	2f	2dd
.	2e	2g	2dd
.	[2f	2a	2cc
=22	=22	=22	=22
2r	4f]	1d	2dd
.	4e	.	.
2G	4d	.	2.d
.	4c	.	.
2G	4B-y	1r	.
.	4A	.	4e
2F	2d	.	2f
=23	=23	=23	=23
2G	2d	1r	1e
2A	2c#i	.	.
4B-y	1d	2r	1d
4A	.	.	.
4G	.	2g	.
4F	.	.	.
=24	=24	=24	=24
4E	0r	2g	0r
4D	.	.	.
2d	.	2f	.
2B-y	.	2g	.
2c	.	2a	.
=25	=25	=25	=25
1d	0r	4b-y	0r
.	.	4a	.
.	.	4g	.
.	.	4f	.
4c	.	4e	.
4B-y	.	4d	.
4A	.	[2a	.
4G	.	.	.
=26	=26	=26	=26
2F	0r	2a]	0r
2G	.	1g	.
1A	.	.	.
.	.	2f#i	.
=27	=27	=27	=27
0G	1.d	1g	1r
.	.	1r	1g
.	2e	.	.
=28	=28	=28	=28
0r	1f	2.d	2.a
.	.	4e	4g
.	1d	2f	2a
.	.	2g	2b-y
=29	=29	=29	=29
2r	2r	2a	2cc
2B-y	2G	1b-y	2dd
2G	2B-y	.	2ee
2A	2c	[2a	[2ff
=30	=30	=30	=30
1B-y	1d	4a]	2ff]
.	.	4g	.
.	.	4g	4ee
.	.	4f	4dd
2.A	2e	1a	2.cc
.	[2f	.	.
4G	.	.	4b-y
=31	=31	=31	=31
2F	4f]	0r	4a
.	4e	.	4g
2G	1d	.	1b-y
1E	.	.	.
.	2c#i	.	4a
.	.	.	4g
=32	=32	=32	=32
1D	1d	2.d	1f
.	.	4e	.
1r	1r	2f	2.a
.	.	2g	.
.	.	.	4b-y
=33	=33	=33	=33
2r	2r	2a	2cc
2B-y	2G	2.b-y	2dd
2G	2B-y	.	2ee
.	.	4a	.
2A	2c	[2a	[2ff
=34	=34	=34	=34
1B-y	1d	4a]	2ff]
.	.	4g	.
.	.	4g	4ee
.	.	4f	4dd
1A	2e	1a	2.cc
.	2f	.	.
.	.	.	4a
=35	=35	=35	=35
2G	4g	1d	4b-y
.	4f	.	4cc
2B-y	4e	.	1dd
.	4d	.	.
1A	1e	[1a	.
.	.	.	2cc#i
=36	=36	=36	=36
1D	2.d	1a]	1dd
.	4c	.	.
1G	2B-y	2r	2r
.	4A	2g	2g
.	4G	.	.
=37	=37	=37	=37
1r	1d	2g	2b-y
.	.	2f	2a
2r	2r	1g	2.b-y
2G	2G	.	.
.	.	.	4cc
=38	=38	=38	=38
2G	2B-y	1d	1dd
2F	2A	.	.
1G	2.B-y	2r	2r
.	.	2g	2g
.	4c	.	.
=39	=39	=39	=39
1D	1d	2g	2b-y
.	.	2f	2a
2r	2r	2g	2.b-y
2G	2G	2g	.
.	.	.	4cc
=40	=40	=40	=40
2G	2B-y	1d	2.dd
2F	2A	.	.
.	.	.	4cc
2G	2.B-y	2r	4b-y
.	.	.	4a
2G	.	2d	[2b-y
.	4c	.	.
=41	=41	=41	=41
2D	1.d	2d	2b-]
2D	.	2d	4a
.	.	.	4g
2D	.	[1f	2a
2D	4c	.	2a
.	4B-y	.	.
=42	=42	=42	=42
1.F	2A	2f]	2a
.	2A	4e	2a
.	.	4d	.
.	2A	2.c	[1cc
4E	2A	.	.
4D	.	4d	.
=43	=43	=43	=43
2.C	1.c	4e	2cc]
.	.	4f	.
.	.	2.g	2b-y
4D	.	.	.
4E	.	.	2g
4F	.	4f	.
2G	2B-y	2d	[2b-y
=44	=44	=44	=44
2E	2G	2e	4b-]
.	.	.	4a
2G	2B-y	2.d	1g
1D	1A	.	.
.	.	4c	.
.	.	2A	2f#i
=45	=45	=45	=45
0G	1G	0B-y	1g
.	1r	.	2r
.	.	.	2g
=46	=46	=46	=46
0r	1g	0r	2b-y
.	.	.	2cc
.	2g	.	2dd
.	2g	.	[2ee-i
=47	=47	=47	=47
0r	1.g	0r	2ee-]
.	.	.	4dd
.	.	.	4cc
.	.	.	2b-y
.	4f	.	[2ee-i
.	4e-i	.	.
=48	=48	=48	=48
0r	2f	0r	2ee-]
.	2g	.	1dd
.	1e-i	.	.
.	.	.	2cc
=49	=49	=49	=49
2r	0d	0r	0dd
2D	.	.	.
2F	.	.	.
2G	.	.	.
=50	=50	=50	=50
2A	1r	2r	0r
1B-y	.	2d	.
.	1d	2f	.
4A	.	2g	.
4G	.	.	.
=51	=51	=51	=51
2F	2d	2a	0r
1G	1d	1b-y	.
4F	2d	4a	.
4E	.	4g	.
=52	=52	=52	=52
2.D	1d	2f	1r
.	.	2.a	.
4E	.	.	.
2F	2c	.	2r
.	.	4g	.
2G	2B-y	[2g	2dd
=53	=53	=53	=53
1D	1A	2g]	2dd
.	.	2f#i	1dd
1r	4G	2g	.
.	4A	.	.
.	4B-y	[2G	2dd
.	4c	.	.
=54	=54	=54	=54
0r	4d	4G]	1dd
.	4c	4A	.
.	4d	4B-y	.
.	4e	4G	.
.	2f	2A	2cc
.	[2g	2G	2b-y
=55	=55	=55	=55
1r	2g]	1d	1a
.	2f#i	.	.
1G	[1g	2r	1g
.	.	2G	.
=56	=56	=56	=56
2G	1g]	2B-y	0r
1G	.	2c	.
.	1r	2d	.
2G	.	[2e-i	.
=57	=57	=57	=57
2G	0r	2e-]	0r
2F	.	1d	.
1E-i	.	.	.
.	.	2c	.
=58	=58	=58	=58
0D	1r	1d	2r
.	.	.	2d
.	1d	2r	2.f
.	.	2d	.
.	.	.	4g
=59	=59	=59	=59
0r	2d	2.f	2a
.	2d	.	4d
.	.	4g	4e
.	[1d	2a	4f
.	.	.	4e
.	.	4d	4f
.	.	4e	4g
=60	=60	=60	=60
0r	2d]	4f	4a
.	.	4g	4b-y
.	2c	4a	4cc
.	.	4f	4a
.	1B-y	4g	4b-y
.	.	4f	4cc
.	.	4e	[2dd
.	.	4d	.
=61	=61	=61	=61
0r	1A	2e	2dd]
.	.	2e	2cc#i
.	1r	2d	2.dd
.	.	2d	.
.	.	.	8ccnXiL
.	.	.	8b-yJ
=62	=62	=62	=62
0d	0r	2.f	1a
.	.	4g	.
.	.	2a	1r
.	.	2b-y	.
=63	=63	=63	=63
2c	1r	4a	1r
.	.	4g	.
2c	.	4f	.
.	.	4e	.
1B-y	[1d	2d	1f
.	.	[2b-y	.
=64	=64	=64	=64
2G	1d]	4b-]	2g
.	.	4a	.
2B-y	.	1g	2g
1A	2c	.	1a
.	2c	2f#i	.
=65	=65	=65	=65
0G	1B-y	1g	2d
.	.	.	2.b-y
.	2G	2r	.
.	.	.	4a
.	2B-y	2g	[2g
=66	=66	=66	=66
1r	1A	1a	2g]
.	.	.	2f#i
2r	1G	2b-y	1g
2G	.	[2g	.
=67	=67	=67	=67
1A	0r	2g]	1r
.	.	1f	.
2B-y	.	.	2r
[2G	.	2e	2g
=68	=68	=68	=68
4G]	2r	1f	1a
4F	.	.	.
1F	2c	.	.
.	2d	1r	2b-y
2E	2e	.	[2g
=69	=69	=69	=69
1F	2c	1r	4g]
.	.	.	4f
.	1d	.	1f
1G	.	1B-y	.
.	4c	.	2e
.	4B-y	.	.
=70	=70	=70	=70
[0Fl	[0Al	1c	[0fl
.	.	1d	.
=71	=71	=71	=71
0F]	0A]	0c	0f]
=72||	=72||	=72||	=72||
*M2/1	*M2/1	*M2/1	*M2/1
*met(C|)	*met(C|)	*met(C|)	*met(C|)
!!section: Et incarnatus est
!!!OMD: Et incarnatus est
0r	0r	1r	1g
.	.	1g	[1b-y
=73	=73	=73	=73
0r	0r	2.g	2b-]
.	.	.	2b-y
.	.	4f	.
.	.	2e	2cc
.	.	2e	2cc
=74	=74	=74	=74
1r	1G	0d	1.dd
1G	[1B-y	.	.
.	.	.	2cc
=75	=75	=75	=75
2.G	2B-]	0G	2b-y
.	2B-y	.	2a
4F	.	.	.
2E	2c	.	2g
2E	2c	.	2g
=76	=76	=76	=76
1D	1d	0A	0f
1D	2r	.	.
.	2d	.	.
=77	=77	=77	=77
1.G	2d	0r	0r
.	2e	.	.
.	2d	.	.
2G	[2g	.	.
=78	=78	=78	=78
2.G	2g]	0r	0r
.	4f	.	.
4A	4e	.	.
4B-y	4d	.	.
4G	4c	.	.
[2d	[2f	.	.
=79	=79	=79	=79
2d]	2f]	1r	0r
4c	4e	.	.
4B-y	4d	.	.
1c	1e	2r	.
.	.	2c	.
=80	=80	=80	=80
1d	0d	1f	2r
.	.	.	2f
1G	.	1g	1b-y
=81	=81	=81	=81
0r	0r	2.a	1cc
.	.	4g	.
.	.	4f	2dd
.	.	4e	.
.	.	[2g	[2ee
=82	=82	=82	=82
0r	0r	4g]	2ee]
.	.	4f	.
.	.	4e	1dd
.	.	4d	.
.	.	1e	.
.	.	.	2cc#i
=83	=83	=83	=83
0r	0r	1d	0dd
.	.	2r	.
.	.	2f	.
=84	=84	=84	=84
1r	0r	1g	2r
.	.	.	2b-y
2r	.	[1a	1cc
[2F	.	.	.
=85	=85	=85	=85
2F]	2r	2a]	1dd
2G	2B-y	4g	.
.	.	4f	.
2.A	1c	2e	2.cc
.	.	[2f	.
4G	.	.	4b-y
=86	=86	=86	=86
2F	2.d	2f]	4a
.	.	.	4g
1G	.	2d	1b-y
.	4c	.	.
.	4B-y	2e	.
.	4A	.	.
2F	[2c	2f	[2a
=87	=87	=87	=87
1E	4c]	2g	2a]
.	4B-y	.	.
.	4A	2c	1g
.	4G	.	.
1D	1A	[1d	.
.	.	.	2f#i
=88	=88	=88	=88
1G	2G	1d]	1g
.	2B-y	.	.
1r	2A	2r	1r
.	[2B-y	2f	.
=89	=89	=89	=89
1r	2B-]	1g	2r
.	4A	.	2b-y
.	4G	.	.
2r	1F	[1a	1cc
[2F	.	.	.
=90	=90	=90	=90
2F]	2r	2a]	1dd
2G	2B-y	4g	.
.	.	4f	.
2.A	1c	2e	2.cc
.	.	[2f	.
4G	.	.	4b-y
=91	=91	=91	=91
2F	2.d	2f]	4a
.	.	.	4g
1G	.	2d	1b-y
.	4c	.	.
.	4B-y	2e	.
.	4A	.	.
2F	[2c	2f	[2a
=92	=92	=92	=92
1E	4c]	2g	2a]
.	4B-y	.	.
.	4A	2c	1g
.	4G	.	.
1D	1A	1d	.
.	.	.	2f#i
=93	=93	=93	=93
0Gl	0Gl	0dl	0gl
=94||	=94||	=94||	=94||
*M2/1	*M2/1	*M2/1	*M2/1
*met(C|)	*met(C|)	*met(C|)	*met(C|)
!!section: Crucifixus
!!!OMD: Crucifixus
0r	1d	0r	0r
.	2d	.	.
.	2d	.	.
=95	=95	=95	=95
1r	2.c	0r	0r
.	4d	.	.
1G	2e	.	.
.	[2d	.	.
=96	=96	=96	=96
2G	2d]	0r	0r
2G	4c	.	.
.	4B-y	.	.
2.F	2.A	.	.
4G	4B-y	.	.
=97	=97	=97	=97
2A	2c	0r	0r
1G	2d	.	.
.	2e	.	.
4F	[2f	.	.
4E	.	.	.
=98	=98	=98	=98
2D	4f]	0r	0r
.	4e	.	.
2F	1d	.	.
1E	.	.	.
.	2c#i	.	.
=99	=99	=99	=99
1D	0d	0r	0r
2r	.	.	.
2D	.	.	.
=100	=100	=100	=100
2.F	2r	0r	0r
.	2A	.	.
4G	.	.	.
2A	2c	.	.
2B-y	2d	.	.
=101	=101	=101	=101
1.c	2e	0r	0r
.	2f	.	.
.	[1g	.	.
4B-y	.	.	.
4A	.	.	.
=102	=102	=102	=102
2G	2g]	0r	0r
1B-y	4f	.	.
.	4e	.	.
.	2d	.	.
4A	[2f	.	.
4G	.	.	.
=103	=103	=103	=103
0F	2f]	0r	0r
.	4e	.	.
.	4d	.	.
.	2c	.	.
.	2d	.	.
=104	=104	=104	=104
2r	4c	0r	0r
.	4B-y	.	.
2c	4A	.	.
.	4G	.	.
2c	1A	.	.
2c	.	.	.
=105	=105	=105	=105
2.B-y	1G	0r	0r
4A	.	.	.
2B-y	2r	.	.
2c	2g	.	.
=106	=106	=106	=106
2G	2g	0r	0r
1B-y	2g	.	.
.	2.f	.	.
4A	.	.	.
4G	4e	.	.
=107	=107	=107	=107
2A	2f	0r	0r
1G	2g	.	.
.	2d	.	.
4F	[2f	.	.
4E	.	.	.
=108	=108	=108	=108
2D	2f]	0r	0r
2d	4e	.	.
.	4d	.	.
2d	1e	.	.
2c	.	.	.
=109	=109	=109	=109
2.B-y	0d	0r	0r
4A	.	.	.
2G	.	.	.
2F	.	.	.
=110	=110	=110	=110
4G	2r	0r	0r
4A	.	.	.
4B-y	2d	.	.
4G	.	.	.
1A	2d	.	.
.	2c	.	.
=111	=111	=111	=111
2r	2.B-y	0r	0r
2d	.	.	.
.	8AL	.	.
.	8GJ	.	.
2d	2B-y	.	.
2c	2A	.	.
=112	=112	=112	=112
2.B-y	4G	0r	0r
.	4A	.	.
.	4B-y	.	.
4A	4c	.	.
2G	4d	.	.
.	4e	.	.
2F	4f	.	.
.	4d	.	.
=113	=113	=113	=113
4G	4e	0r	0r
4A	4d	.	.
4B-y	1g	.	.
4G	.	.	.
1A	.	.	.
.	2f#i	.	.
=114	=114	=114	=114
0Gl	0gl	0r	0r
=115||	=115||	=115||	=115||
*M2/1	*M2/1	*M2/1	*M2/1
*met(C|)	*met(C|)	*met(C|)	*met(C|)
!!section: Et resurrexit
!!!OMD: Et resurrexit
0r	0r	1g	1r
.	.	2g	1b-y
.	.	2g	.
=116	=116	=116	=116
0r	0r	1g	2b-y
.	.	.	2b-y
.	.	2.d	1b-y
.	.	4e	.
=117	=117	=117	=117
0r	0r	2f	1a
.	.	2g	.
.	.	2a	2.cc
.	.	2f	.
.	.	.	4dd
=118	=118	=118	=118
0r	0r	2g	2ee
.	.	1a	1ff
.	.	4g	4ee
.	.	4f	4dd
=119	=119	=119	=119
0r	0r	2e	2cc
.	.	2d	1dd
.	.	1e	.
.	.	.	2cc#i
=120	=120	=120	=120
0r	0r	0d	1dd
.	.	.	2r
.	.	.	[2dd
=121	=121	=121	=121
0r	0r	2r	4dd]
.	.	.	4ee
.	.	2.d	2.ff
.	.	4e	4ee
.	.	[2f	2dd
=122	=122	=122	=122
0r	0r	2f]	2cc
.	.	2e	2.ee
.	.	2c	.
.	.	.	4dd
.	.	[2e	4cc
.	.	.	4b-y
=123	=123	=123	=123
0r	0r	4e]	2cc
.	.	4d	.
.	.	4c	1b-y
.	.	4B-y	.
.	.	2c	.
.	.	[2d	2a
=124	=124	=124	=124
0r	0r	4d]	0b-y
.	.	4c	.
.	.	4B-y	.
.	.	4A	.
.	.	2G	.
.	.	2d	.
=125	=125	=125	=125
0r	0r	2e	2r
.	.	1f	2cc
.	.	.	1dd
.	.	4e	.
.	.	4d	.
=126	=126	=126	=126
0r	0r	4c	1ee
.	.	4d	.
.	.	4e	.
.	.	4f	.
.	.	4g	1dd
.	.	4a	.
.	.	4b-y	.
.	.	4g	.
=127	=127	=127	=127
0r	0r	2a	2cc
.	.	1g	2b-y
.	.	.	1a
.	.	2f#i	.
=128	=128	=128	=128
0r	0r	1g	2r
.	.	.	2g
.	.	1r	2a
.	.	.	[2b-y
=129	=129	=129	=129
0r	0r	1g	2b-]
.	.	.	4a
.	.	.	4g
.	.	2a	2f
.	.	[2b-y	[2g
=130	=130	=130	=130
0r	0r	4b-]	4g]
.	.	4a	4a
.	.	2g	4b-y
.	.	.	4cc
.	.	2f	2dd
.	.	[2g	[2ee
=131	=131	=131	=131
0r	0r	4g]	2ee]
.	.	4f	.
.	.	4e	1dd
.	.	4d	.
.	.	1e	.
.	.	.	2cc#i
=132	=132	=132	=132
0r	0r	1d	1dd
.	.	1g	1r
=133	=133	=133	=133
0r	0r	2f	1cc
.	.	2e	.
.	.	2d	2b-y
.	.	2f	2a
=134	=134	=134	=134
0r	0r	2e	2g
.	.	1d	1b-y
.	.	4c	4a
.	.	4B-y	4g
=135	=135	=135	=135
0r	0r	2A	2f
.	.	2G	1g
.	.	1A	.
.	.	.	2f#i
=136	=136	=136	=136
0r	0r	1G	2g
.	.	.	2dd
.	.	2r	2dd
.	.	2g	2dd
=137	=137	=137	=137
0r	0r	2g	2ee
.	.	2f	2.ff
.	.	2.b-y	.
.	.	.	4ee
.	.	.	4dd
.	.	4a	4cc
=138	=138	=138	=138
0r	0r	4g	2.dd
.	.	4f	.
.	.	2.g	.
.	.	.	4cc
.	.	.	4b-y
.	.	4f	4a
.	.	4e	[2b-y
.	.	4d	.
=139	=139	=139	=139
0r	0r	1e	2b-]
.	.	.	4a
.	.	.	4g
.	.	2.d	4f
.	.	.	4g
.	.	.	4a
.	.	4B-y	4b-y
=140	=140	=140	=140
0r	0r	4c	2a
.	.	4B-y	.
.	.	4A	1g
.	.	4G	.
.	.	1A	.
.	.	.	2f#i
=141	=141	=141	=141
0r	0r	0Gl	0gl
=142||	=142||	=142||	=142||
*M2/1	*M2/1	*M2/1	*M2/1
*met(C|)	*met(C|)	*met(C|)	*met(C|)
!!section: Et iterum
!!!OMD: Et iterum
1r	0r	0r	1g
1G	.	.	2.g
.	.	.	4a
=143	=143	=143	=143
2G	0r	1r	2b-y
2G	.	.	2g
1G	.	1d	2.b-y
.	.	.	4cc
=144	=144	=144	=144
2G	1G	2d	4dd
.	.	.	4ee-i
2F	.	2d	1dd
1E	2G	2e	.
.	2G	2e	2cc#i
=145	=145	=145	=145
1D	2A	2.f	0dd
.	2A	.	.
.	.	4e	.
1r	2.B-y	2d	.
.	.	2G	.
.	4A	.	.
=146	=146	=146	=146
1r	2G	2.B-y	2r
.	2G	.	2g
.	.	4c	.
1G	2.B-y	1d	2.g
.	4c	.	4a
=147	=147	=147	=147
2G	1d	1r	2b-y
2G	.	.	2g
1G	1r	1d	2.b-y
.	.	.	4cc
=148	=148	=148	=148
2G	1G	2d	4dd
.	.	.	4ee-i
2F	.	2d	1dd
1E	2G	2e	.
.	2G	2e	2cc#i
=149	=149	=149	=149
1D	2A	2f	1dd
.	2A	2f	.
1r	2B-y	1d	2r
.	2B-y	.	[2dd
=150	=150	=150	=150
1r	4G	2r	2dd]
.	4A	.	.
.	4B-y	1g	4cc
.	4c	.	4b-y
2r	1d	.	2.a
[2d	.	2f	.
.	.	.	4g
=151	=151	=151	=151
2d]	0r	2d	4a
.	.	.	4b-y
2c	.	1a	1cc
2A	.	.	.
[2c	.	4g	4b-y
.	.	4f	4a
=152	=152	=152	=152
2c]	2r	2e	1.g
2B-y	1d	2d	.
1A	.	1e	.
.	2c	.	[2a
=153	=153	=153	=153
1r	2A	2r	2a]
.	1c	2a	4g
.	.	.	4f
2r	.	2g	2e
[2G	2B-y	[2b-y	2d
=154	=154	=154	=154
2G]	2G	2b-]	1.dd
2F	2r	4a	.
.	.	4g	.
2D	1r	2.f	.
[2F	.	.	2cc
.	.	8eL	.
.	.	8dJ	.
=155	=155	=155	=155
2F]	2r	4c	2a
.	.	4B-y	.
2E	1g	2c	2cc
2D	.	1d	2b-y
[2d	2f	.	[2a
=156	=156	=156	=156
4d]	1e	1A	4a]
4B-y	.	.	4g
2c	.	.	2e
1d	1d	2r	2.f
.	.	[2d	.
.	.	.	8eL
.	.	.	8dJ
=157	=157	=157	=157
1A	0r	2d]	1e
.	.	2c	.
2r	.	1f	1d
[2d	.	.	.
=158	=158	=158	=158
2d]	2r	1e	0r
2c	1g	.	.
2B-y	.	2r	.
[2d	2f	2d	.
=159	=159	=159	=159
4d]	2d	2.f	2r
4c	.	.	.
2B-y	1f	.	2dd
.	.	4g	.
2A	.	1a	2cc
[2A	2e	.	2a
=160	=160	=160	=160
2A]	2c	2r	2cc
2G	1d	2d	2b-y
2F	.	2f	2a
[2A	2c	4e	[2cc
.	.	4d	.
=161	=161	=161	=161
4A]	2A	2c	4cc]
4G	.	.	4b-y
2F	1c	2d	2a
2E	.	2e	2g
2G	2B-y	2d	[2b-y
=162	=162	=162	=162
1B-y	2G	2r	4b-]
.	.	.	4a
.	1d	1f	4f
.	.	.	4g
1A	.	.	1a
.	2c	2e	.
=163	=163	=163	=163
2r	2B-y	2f	1d
1G	2B-y	2g	.
.	1A	1a	1r
2F	.	.	.
=164	=164	=164	=164
2E	2r	2r	2.b-y
2D	1d	1f	.
.	.	.	4b-y
1A	.	.	2cc
.	2c	2e	2cc
=165	=165	=165	=165
2r	2B-y	2f	1dd
1G	2B-y	2g	.
.	1A	1a	1r
2F	.	.	.
=166	=166	=166	=166
2E	2r	1r	2.b-y
2D	2d	.	.
.	.	.	4b-y
1A	2e	1a	2cc
.	[2f	.	2cc
=167	=167	=167	=167
0r	4f]	2a	2dd
.	4e	.	.
.	2d	2f	2dd
.	2c	2g	2ee
.	[2d	2f	[2ff
=168	=168	=168	=168
0r	4d]	2d	4ff]
.	4c	.	4ee
.	2B-y	2.f	2dd
.	2A	.	2cc
.	.	4e	.
.	[2B-y	4d	[2dd
.	.	4c	.
=169	=169	=169	=169
0r	4B-]	1B-y	4dd]
.	4A	.	4cc
.	2G	.	1b-y
.	1F	1c	.
.	.	.	2a
=170	=170	=170	=170
1r	2r	0B-y	0b-y
.	1d	.	.
1G	.	.	.
.	2e	.	.
=171	=171	=171	=171
2A	2f	2r	0r
1B-y	2.g	1d	.
.	4f	.	.
2G	8gL	2e	.
.	8f	.	.
.	8e	.	.
.	8dJ	.	.
=172	=172	=172	=172
2A	2c	2f	0r
2.B-y	1d	1g	.
4A	.	.	.
4G	[2c	[2f	.
4F	.	.	.
=173	=173	=173	=173
1G	2c]	2f]	0r
.	2B-y	2e	.
1F	1c	1f	.
=174	=174	=174	=174
1G	2r	1d	1b-y
.	2B-y	.	.
2G	2B-y	2d	2g
2G	2B-y	2e	2b-y
=175	=175	=175	=175
2F	2c	2f	2a
2F	2c	2f	2cc
1B-y	2.d	2f	2b-y
.	.	2g	[2dd
.	4e	.	.
=176	=176	=176	=176
1A	2f	1a	2dd]
.	2.e	.	2cc
2.B-y	.	2r	2.dd
.	4d	.	.
.	[2d	[2f	.
4A	.	.	4cc
=177	=177	=177	=177
4F	2d]	2f]	4a
4G	.	.	4b-y
2A	2c	2.e	2cc
2G	2.d	.	2b-y
.	.	4d	.
[2F	.	[2f	2a
.	4c	.	.
=178	=178	=178	=178
4F]	4A	2f]	2.cc
4E	4B-y	.	.
4C	2c	1e	.
4D	.	.	4b-y
4E	2.B-y	.	4g
4F	.	.	4a
2G	.	[2d	2b-y
.	8AL	.	.
.	8GJ	.	.
=179	=179	=179	=179
2D	2F	2d]	2a
2E	2G	2c	1g
1D	1A	1d	.
.	.	.	2f#i
=180	=180	=180	=180
0G	1G	1r	1g
.	1r	[1d	1b-y
=181	=181	=181	=181
0r	0r	2d]	2b-y
.	.	2e	2b-y
.	.	1f	4a
.	.	.	4g
.	.	.	4a
.	.	.	4b-y
=182	=182	=182	=182
2r	0r	2f	2cc
2G	.	2d	2dd
2G	.	2e	2dd
2A	.	2e	2cc#i
=183	=183	=183	=183
1.B-y	2r	1d	0dd
.	2d	.	.
.	2d	1r	.
4A	2d	.	.
4G	.	.	.
=184	=184	=184	=184
2A	1.f	0r	0r
2.B-y	.	.	.
4A	.	.	.
4G	4e	.	.
4F	4d	.	.
=185	=185	=185	=185
4G	2e	0r	0r
4F	.	.	.
4E	1d	.	.
4D	.	.	.
1E	.	.	.
.	2c#i	.	.
=186	=186	=186	=186
1D	0d	2r	0r
.	.	1f	.
2r	.	.	.
2B-y	.	2d	.
=187	=187	=187	=187
2G	0r	2e	2r
2A	.	2f	1ff
2B-y	.	2g	.
2c	.	[2a	2ee
=188	=188	=188	=188
1d	1r	2a]	2.dd
.	.	2f	.
.	.	.	4cc
1G	2r	2g	4b-y
.	.	.	4a
.	2B-y	[2b-y	[2dd
=189	=189	=189	=189
0r	2G	4b-]	2dd]
.	.	4a	.
.	2A	2.a	2cc
.	2B-y	.	1b-y
.	.	4g	.
.	2c	[2g	.
=190	=190	=190	=190
1r	1d	2g]	1a
.	.	2f#i	.
2r	1G	1g	[1dd
2B-y	.	.	.
=191	=191	=191	=191
2G	0r	2r	2dd]
2A	.	2f	2cc
2B-y	.	2d	1b-y
2c	.	2e	.
=192	=192	=192	=192
2d	2r	2f	2a
1G	2B-y	1g	1b-y
.	2G	.	.
2F	2A	[2c	2a
=193	=193	=193	=193
1E	2B-y	4c]	1g
.	.	4B-y	.
.	2c	4G	.
.	.	4A	.
2r	2d	2B-y	2f
2D	[2f	2A	[2dd
=194	=194	=194	=194
2BB-y	2f]	2d	4dd]
.	.	.	4cc
2C	2e	2e	2.cc
2D	1d	2f	.
.	.	.	4b-y
2E	.	2g	2b-y
=195	=195	=195	=195
2F	2c	2f	4a
.	.	.	4g
2G	2B-y	2e	1b-y
1F	1c	1f	.
.	.	.	2a
=196	=196	=196	=196
1r	0B-y	2r	1.b-y
.	.	1f	.
[1B-y	.	.	.
.	.	2e	4a
.	.	.	4g
=197	=197	=197	=197
2B-]	0r	2d	1f
2A	.	2c	.
2G	.	[1d	1r
2F	.	.	.
=198	=198	=198	=198
2G	0r	1d]	0r
4F	.	.	.
4E	.	.	.
2D	.	2.f	.
[2B-y	.	.	.
.	.	4e	.
=199	=199	=199	=199
2B-]	1.f	2d	0r
2A	.	2c	.
1G	.	1B-y	.
.	2e	.	.
=200	=200	=200	=200
0F	2d	0A	2r
.	2c	.	1cc
.	[1f	.	.
.	.	.	2b-y
=201	=201	=201	=201
0r	2f]	0r	2a
.	2e	.	2g
.	2d	.	2a
.	[2g	.	[2b-y
=202	=202	=202	=202
0r	2g]	1r	2b-]
.	1f	.	2a
.	.	[1c	1g
.	2e	.	.
=203	=203	=203	=203
1.F	1f	2c]	1f
.	.	2B-y	.
.	1r	2A	1r
2E	.	2G	.
=204	=204	=204	=204
2D	2r	0A	0r
2C	1c	.	.
[1F	.	.	.
.	2B-y	.	.
=205	=205	=205	=205
2F]	2A	1c	0r
2E	2G	.	.
2D	2A	[1d	.
[2G	[2B-y	.	.
=206	=206	=206	=206
2G]	2B-]	2d]	0r
1F	2A	2d	.
.	4G	2c	.
.	4A	.	.
2E	4B-y	[2g	.
.	4c	.	.
=207	=207	=207	=207
1F	2A	4g]	0r
.	.	4f	.
.	4G	1f	.
.	4F	.	.
1C	1G	.	.
.	.	2e	.
=208	=208	=208	=208
2r	2F	2f	1a
2F	2f	2c	.
2.F	[1f	2c	2a
.	.	2c	2a
4E	.	.	.
=209	=209	=209	=209
2D	2f]	2d	2a
2D	2f	2d	2b-y
1C	2e	2G	1cc
.	2e	[2g	.
=210	=210	=210	=210
2.G	1.d	4g]	2.b-y
.	.	4f	.
.	.	4d	.
4F	.	4e	4a
4D	.	2.f	4a
4E	.	.	4g
2F	2c	.	[2a
.	.	4e	.
=211	=211	=211	=211
2G	2B-y	2d	4a]
.	.	.	4g
2E	4A	2c	1g
.	4G	.	.
1D	1A	1d	.
.	.	.	2f#i
=212	=212	=212	=212
0G	0G	2r	2g
.	.	2g	2dd
.	.	2g	2dd
.	.	2g	2ee
=213	=213	=213	=213
0r	0r	2f	4ff
.	.	.	4ee
.	.	2f	4dd
.	.	.	4cc
.	.	2g	2b-y
.	.	[2b-y	2dd
=214	=214	=214	=214
0r	0r	2b-]	2dd
.	.	4a	2dd
.	.	4g	.
.	.	1a	1cc
=215	=215	=215	=215
2r	2r	1b-y	0b-y
2G	2d	.	.
2G	2d	1B-y	.
2G	2e	.	.
=216	=216	=216	=216
2F	4f	2c	0r
.	4e	.	.
2F	4d	2.d	.
.	4c	.	.
2G	2B-y	.	.
.	.	4c	.
[2B-y	2d	4B-y	.
.	.	4A	.
=217	=217	=217	=217
2B-]	2d	4G	0r
.	.	4F	.
4A	2d	1f	.
4G	.	.	.
1A	1c	.	.
.	.	2e	.
=218	=218	=218	=218
1B-y	1B-y	2.d	2r
.	.	.	2f
.	.	4c	.
2r	2r	2e	2g
2F	[2f	[2d	2a
=219	=219	=219	=219
1G	2f]	2d]	2b-y
.	2e	4c	2g
.	.	4B-y	.
2F	2d	1A	1a
2F	2c	.	.
=220	=220	=220	=220
1G	2e	1r	0r
.	2.d	.	.
1D	.	2r	.
.	4c	.	.
.	2B-y	[2f	.
=221	=221	=221	=221
0r	1A	2f]	1cc
.	.	2e	.
.	1r	2d	2b-y
.	.	2c	2a
=222	=222	=222	=222
0r	0r	2e	2g
.	.	1d	2b-y
.	.	.	2a
.	.	4c	[2cc
.	.	4B-y	.
=223	=223	=223	=223
2r	2r	4A	2cc]
.	.	4G	.
2B-y	2d	2g	2b-y
2c	2e	2g	1a
2d	2f	2f#i	.
=224	=224	=224	=224
2B-y	2d	1g	1g
4A	1g	.	.
4G	.	.	.
1A	.	1r	1r
.	2f#i	.	.
=225	=225	=225	=225
1G	1g	2r	2r
.	.	2g	2b-y
1r	2r	2a	2cc
.	2G	[2b-y	[2dd
=226	=226	=226	=226
1r	2B-y	2b-]	2dd]
.	2c	4a	4cc
.	.	4g	4b-y
2r	2.d	2f	2a
2D	.	2d	2f
.	4c	.	.
=227	=227	=227	=227
2G	2B-y	2d	2g
2D	2A	2d	2f
2G	2B-y	2d	2g
2C	2c	2e	2g
=228	=228	=228	=228
2D	2.A	2d	2.f
2.F	.	2c	.
.	4B-y	.	4g
.	2c	2.f	2a
4E	.	.	.
4D	[2d	.	[2b-y
4C	.	4e	.
=229	=229	=229	=229
2BB-y	4d]	4d	4b-]
.	4e	4c	4a
2.B-y	4f	2d	4b-y
.	4e	.	8aL
.	.	.	8gJ
.	4d	1G	2f
4A	4c	.	.
4G	4B-y	.	[2b-y
4F	4A	.	.
=230	=230	=230	=230
2E	2G	1r	4b-]
.	.	.	4a
2F	2A	.	1a
1G	1B-y	2r	.
.	.	2d	2g
=231	=231	=231	=231
1D	0A	2d	0a
.	.	2d	.
2r	.	2e	.
2A	.	2e	.
=232	=232	=232	=232
2A	0r	4f	0r
.	.	4e	.
2A	.	4d	.
.	.	4c	.
2B-y	.	[1g	.
2B-y	.	.	.
=233	=233	=233	=233
1c	0r	4g]	0r
.	.	4f	.
.	.	4e	.
.	.	4d	.
2A	.	2c	.
2B-y	.	[2f	.
=234	=234	=234	=234
1G	2r	2f]	2r
.	2B-y	2e	2b-y
1F	2c	1f	2a
.	2d	.	2a
=235	=235	=235	=235
0r	2B-y	1r	2g
.	2c	.	2g
.	2.d	2r	1f
.	.	2B-y	.
.	8cL	.	.
.	8B-yJ	.	.
=236	=236	=236	=236
1F	2A	2c	2r
.	1f	2d	2a
2G	.	2B-y	2b-y
2A	[2e	2c	2a
=237	=237	=237	=237
2.F	2e]	4d	2r
.	.	4c	.
.	1d	2.f	2.a
4G	.	.	.
1A	.	.	.
.	.	4e	4b-y
.	2c	[2e	4cc
.	.	.	4a
=238	=238	=238	=238
1D	2.d	4e]	2b-y
.	.	4d	.
.	.	2.d	2a
.	4c	.	.
2E	2B-y	.	2r
.	.	4c	.
2F	2A	4c	[2a
.	.	4B-y	.
=239	=239	=239	=239
2D	2B-y	2d	2a]
2E	1c	2G	2g
1F	.	2r	2a
.	[2F	2c	[2cc
=240	=240	=240	=240
1BB-y	2F]	1d	4cc]
.	.	.	4b-y
.	2G	.	2.b-y
2C	2A	2c	.
.	.	.	4a
2D	2F	2A	[2a
=241	=241	=241	=241
2BB-y	1B-y	2d	4a]
.	.	.	4g
2C	.	2e	1g
1D	1A	1d	.
.	.	.	2f#i
=242	=242	=242	=242
0Gl	0Gl	0dl	0gl
==	==	==	==
*-	*-	*-	*-
!!!system-decoration: s1,s2,s3,s4
!!!RDF**kern: i = editorial accidental
!!!RDF**kern: l = terminal long
!!!ENC: David Nivarlet
!!!END: 2025/11/26
!!!EED: Benjamin Ory
!!!EEV: 2026/01/26
!!!YEC: Copyright 2026 Benjamin Ory, All Rights Reserved
!!!ONB: Translated from MusicXML on 2026/01/26
